dist/svg/static/rss-feed-large.svg

<svg xmlns="http://www.w3.org/2000/svg" width="48" height="48" viewBox="0 0 48 48"><path d="M36 10H13c-1.7 0-3 1.3-3 3v23c0 1.7 1.3 3 3 3h23c1.7 0 3-1.3 3-3V13c0-1.7-1.3-3-3-3zM17 34c-1.1 0-2-.9-2-2s.9-2 2-2 2 .9 2 2-.9 2-2 2zm5.5 0c0-2.2-.6-4-1.9-5.3-2.2-2.2-5.6-2.2-5.6-2.2v-3c.2 0 4.6 0 7.7 3.1 1.8 1.8 2.8 4.3 2.8 7.4h-3zm6.5 0c0-14.8-13.4-15-14-15v-3c.2 0 17 .2 17 18h-3z" fill="currentColor"/></svg>

<?xml version="1.0" encoding="UTF-8" standalone="no"?>
<svg width="48px" height="48px" viewBox="0 0 48 48" version="1.1" xmlns="http://www.w3.org/2000/svg" xmlns:xlink="http://www.w3.org/1999/xlink">
    <!-- Generator: sketchtool 46.2 (44496) - http://www.bohemiancoding.com/sketch -->
    <title>rss-feed-large</title>
    <desc>Created with sketchtool.</desc>
    <defs></defs>
    <g id="icons-published" stroke="none" stroke-width="1" fill="none" fill-rule="evenodd">
        <g id="briefing" transform="translate(-2304.000000, -1562.000000)"></g>
        <g id="rss-feed-large" fill-rule="nonzero" fill="#000000">
            <path d="M36,10 L13,10 C11.3,10 10,11.3 10,13 L10,36 C10,37.7 11.3,39 13,39 L36,39 C37.7,39 39,37.7 39,36 L39,13 C39,11.3 37.7,10 36,10 Z M17,34 C15.9,34 15,33.1 15,32 C15,30.9 15.9,30 17,30 C18.1,30 19,30.9 19,32 C19,33.1 18.1,34 17,34 Z M22.5,34 C22.5,31.8 21.9,30 20.6,28.7 C18.4,26.5 15,26.5 15,26.5 L15,23.5 C15.2,23.5 19.6,23.5 22.7,26.6 C24.5,28.4 25.5,30.9 25.5,34 L22.5,34 Z M29,34 C29,19.2 15.6,19 15,19 L15,16 C15.2,16 32,16.2 32,34 L29,34 Z" id="Shape"></path>
        </g>
    </g>
</svg>
